X: 4191
T: The KID ON THE MOUNTAIN
R: Slip Jig
%R: slip-jig
B: James Kerr "Merry Melodies" v.4 p.22 #191
Z: 2016 John Chambers <jc:trillian.mit.edu>
M: 6/8
L: 1/8
K: D
|:\
DEE DEF G2E | DED d2A BAF |\
DEE DEF G2A | BAG FED AFD ::\
BcB ABA G2A | B2A Bde dBA |
BcB ABA G2A | BAG FED AFD ::\
gfg dBd e2f | gfg efg afd |\
gfg dBd e2f | afd d2f afd :|

%%sep 1 1 500
%%sep 1 1 500

